src/assets/images/realtime/realtimekit/web/components-gallery/rtk-grid-pagination.svg

<svg xmlns="http://www.w3.org/2000/svg" xmlns:xlink="http://www.w3.org/1999/xlink" width="400" height="300" fill="none" viewBox="0 0 400 300"><g clip-path="url(#clip0_9781_46785)"><path fill="#fff" d="M0 0h400v300H0z"/><path fill="url(#pattern0_9781_46785)" d="M0 4.21A4.21 4.21 0 0 1 4.21 0h391.58A4.21 4.21 0 0 1 400 4.21v291.58a4.21 4.21 0 0 1-4.211 4.211H4.211A4.21 4.21 0 0 1 0 295.789z" style="mix-blend-mode:darken"/><rect width="146" height="46" x="127" y="127" fill="#000" rx="23"/><path fill="#b8b8b8" d="M236.007 142.22a.747.747 0 0 0 0 1.06l6.72 6.72-6.72 6.72a.74.74 0 0 0-.239.535.7.7 0 0 0 .055.294.74.74 0 0 0 .414.415.74.74 0 0 0 .586-.01.8.8 0 0 0 .244-.174l7.25-7.25a.75.75 0 0 0 0-1.06l-7.25-7.25a.75.75 0 0 0-1.06 0m-72.478 15.579a.75.75 0 0 0 0-1.06l-6.72-6.72 6.72-6.72a.752.752 0 0 0-.23-1.244.74.74 0 0 0-.586.01.8.8 0 0 0-.244.174l-7.25 7.25a.75.75 0 0 0 0 1.06l7.25 7.25a.754.754 0 0 0 1.06 0"/><path fill="#fff" d="M194.191 141.455V156h-2.202v-12.344h-.085l-3.48 2.273v-2.102l3.629-2.372z"/><path stroke="#fff" stroke-opacity=".5" d="m196.53 163.204 7-19.374"/><path fill="#fff" fill-opacity=".49" d="M209.096 163.159a4.7 4.7 0 0 1-1.534-.284 3.6 3.6 0 0 1-1.364-.909q-.614-.636-.983-1.71-.363-1.074-.363-2.682 0-1.523.301-2.705.306-1.182.88-1.994.574-.818 1.387-1.244.811-.426 1.824-.426 1.04 0 1.846.409a3.46 3.46 0 0 1 1.307 1.13 3.8 3.8 0 0 1 .642 1.642h-1.733a2.24 2.24 0 0 0-.699-1.187q-.523-.46-1.363-.46-1.279 0-1.995 1.113-.71 1.114-.716 3.097h.086q.3-.495.738-.841.444-.352.989-.54a3.5 3.5 0 0 1 1.159-.193q1.011 0 1.83.494.823.489 1.312 1.353.489.862.489 1.977a4.06 4.06 0 0 1-.506 2.017 3.7 3.7 0 0 1-1.409 1.432q-.91.523-2.125.511m-.006-1.477q.67 0 1.199-.33a2.37 2.37 0 0 0 .835-.886 2.53 2.53 0 0 0 .307-1.244q0-.671-.301-1.222a2.3 2.3 0 0 0-.818-.875 2.2 2.2 0 0 0-1.182-.324q-.506 0-.938.193a2.4 2.4 0 0 0-.75.534 2.6 2.6 0 0 0-.511.784 2.4 2.4 0 0 0-.182.927q0 .653.301 1.21.307.556.836.898a2.2 2.2 0 0 0 1.204.335"/></g><defs><clipPath id="clip0_9781_46785"><path fill="#fff" d="M0 0h400v300H0z"/></clipPath><pattern id="pattern0_9781_46785" width=".037" height=".049" patternContentUnits="objectBoundingBox"><use xlink:href="#image0_9781_46785" transform="scale(.00066 .00088)"/></pattern><image xlink:href="data:image/png;base64,iVBORw0KGgoAAAANSUhEUgAAADgAAAA4CAYAAACohjseAAAACXBIWXMAACxLAAAsSwGlPZapAAAAAXNSR0IArs4c6QAAAARnQU1BAACxjwv8YQUAAADdSURBVHgB7dmxDoMgFIXhCzEmbsbF9388F8PGAKHt6dSksvXaHHK+EQbzB0Sj4fFiA4s2OAWyUyA7BbJTIDsFslMgOwWyUyA7BbJTIDsFspvsBrVWO8/TSinWWrNlWWxdV5sm/8sH7w+/iDuO4x32KcZo+767R7pv0ZTSVxxgDKvqzT0w59ydw5b15h4YQujOXa3sr7kHzvPcncNh4809cNu2y1XEGE5Sb+GO32c4SXHY4H5EGFYV4UM8Jv5Nr2rsFMhOgewUyE6B7BTIToHsFMhOgewUyE6B7IYPfALcB0NZ5j6jXgAAAABJRU5ErkJggg==" id="image0_9781_46785" width="56" height="56" preserveAspectRatio="none"/></defs></svg>

<svg width="400" height="300" viewBox="0 0 400 300" fill="none" xmlns="http://www.w3.org/2000/svg" xmlns:xlink="http://www.w3.org/1999/xlink">
<g clip-path="url(#clip0_9781_46785)">
<rect width="400" height="300" fill="white"/>
<g style="mix-blend-mode:darken">
<path d="M0 4.21053C0 1.88512 1.88512 0 4.21053 0H395.789C398.115 0 400 1.88512 400 4.21053V295.789C400 298.115 398.115 300 395.789 300H4.21054C1.88513 300 0 298.115 0 295.789V4.21053Z" fill="url(#pattern0_9781_46785)"/>
</g>
<rect x="127" y="127" width="146" height="46" rx="23" fill="black"/>
<path d="M236.007 142.22C235.866 142.36 235.787 142.551 235.787 142.75C235.787 142.949 235.866 143.139 236.007 143.28L242.727 150L236.007 156.72C235.933 156.788 235.874 156.871 235.833 156.963C235.792 157.055 235.77 157.155 235.768 157.255C235.766 157.356 235.785 157.456 235.823 157.549C235.86 157.643 235.917 157.728 235.988 157.799C236.059 157.87 236.144 157.926 236.237 157.964C236.331 158.002 236.431 158.02 236.531 158.018C236.632 158.017 236.731 157.995 236.823 157.954C236.915 157.913 236.998 157.854 237.067 157.78L244.317 150.53C244.457 150.389 244.536 150.199 244.536 150C244.536 149.801 244.457 149.61 244.317 149.47L237.067 142.22C236.926 142.079 236.736 142 236.537 142C236.338 142 236.147 142.079 236.007 142.22Z" fill="#B8B8B8"/>
<path d="M163.529 157.799C163.67 157.658 163.749 157.467 163.749 157.269C163.749 157.07 163.67 156.879 163.529 156.739L156.809 150.019L163.529 143.299C163.603 143.23 163.662 143.147 163.703 143.055C163.744 142.963 163.766 142.864 163.768 142.763C163.77 142.663 163.751 142.563 163.713 142.469C163.676 142.376 163.62 142.291 163.548 142.22C163.477 142.148 163.392 142.092 163.299 142.055C163.206 142.017 163.106 141.998 163.005 142C162.904 142.002 162.805 142.024 162.713 142.065C162.621 142.106 162.538 142.165 162.469 142.239L155.219 149.489C155.079 149.629 155 149.82 155 150.019C155 150.217 155.079 150.408 155.219 150.549L162.469 157.799C162.61 157.939 162.801 158.018 162.999 158.018C163.198 158.018 163.389 157.939 163.529 157.799Z" fill="#B8B8B8"/>
<path d="M194.191 141.455V156H191.989V143.656H191.904L188.424 145.929V143.827L192.053 141.455H194.191Z" fill="white"/>
<line x1="196.53" y1="163.204" x2="203.53" y2="143.83" stroke="white" stroke-opacity="0.5"/>
<path d="M209.096 163.159C208.577 163.152 208.066 163.057 207.562 162.875C207.062 162.693 206.607 162.39 206.198 161.966C205.789 161.542 205.461 160.972 205.215 160.256C204.973 159.54 204.852 158.646 204.852 157.574C204.852 156.559 204.952 155.657 205.153 154.869C205.357 154.081 205.651 153.417 206.033 152.875C206.416 152.33 206.878 151.915 207.42 151.631C207.961 151.347 208.569 151.205 209.244 151.205C209.937 151.205 210.552 151.341 211.09 151.614C211.628 151.886 212.064 152.263 212.397 152.744C212.734 153.225 212.948 153.773 213.039 154.386H211.306C211.189 153.902 210.956 153.506 210.607 153.199C210.259 152.892 209.804 152.739 209.244 152.739C208.391 152.739 207.727 153.11 207.249 153.852C206.776 154.595 206.537 155.627 206.533 156.949H206.619C206.819 156.619 207.066 156.339 207.357 156.108C207.653 155.873 207.982 155.693 208.346 155.568C208.713 155.439 209.1 155.375 209.505 155.375C210.179 155.375 210.789 155.54 211.335 155.869C211.884 156.195 212.321 156.646 212.647 157.222C212.973 157.797 213.136 158.456 213.136 159.199C213.136 159.941 212.967 160.614 212.63 161.216C212.297 161.818 211.827 162.295 211.221 162.648C210.615 162.996 209.906 163.167 209.096 163.159ZM209.09 161.682C209.537 161.682 209.937 161.572 210.289 161.352C210.641 161.133 210.92 160.837 211.124 160.466C211.329 160.095 211.431 159.68 211.431 159.222C211.431 158.775 211.331 158.367 211.13 158C210.933 157.633 210.66 157.341 210.312 157.125C209.967 156.909 209.573 156.801 209.13 156.801C208.793 156.801 208.48 156.866 208.192 156.994C207.908 157.123 207.658 157.301 207.442 157.528C207.227 157.756 207.056 158.017 206.931 158.312C206.81 158.604 206.749 158.913 206.749 159.239C206.749 159.674 206.85 160.078 207.05 160.449C207.255 160.82 207.533 161.119 207.886 161.347C208.242 161.57 208.643 161.682 209.09 161.682Z" fill="white" fill-opacity="0.49"/>
</g>
<defs>
<pattern id="pattern0_9781_46785" patternContentUnits="objectBoundingBox" width="0.0368421" height="0.0491228">
<use xlink:href="#image0_9781_46785" transform="scale(0.000657895 0.000877193)"/>
</pattern>
<clipPath id="clip0_9781_46785">
<rect width="400" height="300" fill="white"/>
</clipPath>
<image id="image0_9781_46785" width="56" height="56" preserveAspectRatio="none" xlink:href="data:image/png;base64,iVBORw0KGgoAAAANSUhEUgAAADgAAAA4CAYAAACohjseAAAACXBIWXMAACxLAAAsSwGlPZapAAAAAXNSR0IArs4c6QAAAARnQU1BAACxjwv8YQUAAADdSURBVHgB7dmxDoMgFIXhCzEmbsbF9388F8PGAKHt6dSksvXaHHK+EQbzB0Sj4fFiA4s2OAWyUyA7BbJTIDsFslMgOwWyUyA7BbJTIDsFspvsBrVWO8/TSinWWrNlWWxdV5sm/8sH7w+/iDuO4x32KcZo+767R7pv0ZTSVxxgDKvqzT0w59ydw5b15h4YQujOXa3sr7kHzvPcncNh4809cNu2y1XEGE5Sb+GO32c4SXHY4H5EGFYV4UM8Jv5Nr2rsFMhOgewUyE6B7BTIToHsFMhOgewUyE6B7IYPfALcB0NZ5j6jXgAAAABJRU5ErkJggg=="/>
</defs>
</svg>
